X:1
T:Courante
T:Sarabande
T:Elisabeth Jacquet de la Guerre
T:Suite in D Minor  N°5
%%score { ( 1 2 ) | ( 3 4 5 ) }
L:1/8
Q:1/4=90
M:3/4
K:C
V:1 treble nm="Piano" snm="Pno."
V:2 treble 
V:3 bass 
V:4 bass 
V:5 bass 
V:1
 [^FA]3 A _B2 | !arpeggio![G_B]3 c PA2 | ^c3 c d2 | Pd3 ^c Md2 | !arpeggio!fe dc P_BA | %5
 M_BA GF PED | P^CD MEF GA | PF3 E/F/ E2 ::"_Reprise" E2 F2 G2 | A3 _B AG | P^F2 G2 A2 | %11
 _B3 c PA2 | [cf]3 c Md2 | g2 Peg c2 | c2 P_B3 A | PGF PE2 MA>E | [DF]>^C MD3 C | %17
 z P_B,2 A, MB,_B- | B^F MG3 =F | z E3 [A,D]2 | [DF]>^C MD3 C | z P_B,2 A, MB,_B- | B^F MG3 =F | %23
 z E3 [A,D]2 :| %24
V:2
 D3 ^F G2 | [EG]3 x3 | [EG]4 F2 | E4 x2 | [Ad]2 x4 | x6 | x4 [^CE]2 | D3 x3 :: ^C2 D2 E2 | %9
 MF3 G FE | D2 E2 ^F2 | MG2 PDE F2 | A3 x3 | G2 x4 | F2 E3 F | EF x4 | A,>^C x A,2 z | x6 | %18
 x2 z ^C2 D | x D2 ^C F,2 | A,>^C x A,2 z | x6 | x2 z ^C2 D | x D2 ^C F,2 :| %24
V:3
 z2 D,4 | ^C,4 F,,2 | E,,4 D,,2 | A,,4 D,,2 | D,E, F,2 [A,D-]2 | DC _B,A, G,F, | G,2 A,4 | %7
 D,4 A,,2 :: A,4 G,2 | F,4 F,2 | _B,4 A,2 | G,4 D,2 | A,4 _B,,2 | E,,4 A,,2 | A,,2 G,,2 F,,2 | %15
 C,4 [E,A,]2 | D,4 A,,2- | D,6 | A,,2 _B,,2 G,,2 | A,,4 D,,2- | D,4 A,,2- | D,6 | A,,2 _B,,2 G,,2 | %23
 A,,4 D,,2 :| %24
V:4
 D,,6 | x6 | x6 | z2 A,,,2 x2 | D,4 ^F,2 | G,4 x2 | E,D, [^C,E,]B,, A,,2 | z2 D,,2 x2 :: x6 | %9
 z2 F,,2 x2 | x6 | z2 G,,2 x2 | A,,4 x2 | x4 A,,,2 | x6 | x4 ^C,2 | D,,>E,, F,,2 ^F,,2- | %17
 F,,2 D,,2 G,,2 | x6 | z2 A,,,2 x2 | D,,>E,, F,,2 ^F,,2- | F,,2 D,,2 G,,2 | x6 | z2 A,,,2 x2 :| %24
V:5
 x6 | x6 | x6 | x6 | x6 | x6 | x6 | x6 :: x6 | x6 | x6 | x6 | x6 | x6 | x6 | x6 | x6 | A,,4 x2 | %18
 x6 | x6 | x6 | A,,4 x2 | x6 | x6 :| %24

